X:823
T:Sidlaw Hills, The 
C:Joe Buchanan's Scottish Tome - Page 398.2
I:398 2
Z:Carl Allison
R:Strathspey
L:1/8
M:4/4
K:A
((3e/f/g/) | "A"a/>b/a/>f/ "E7"e/<c/B/>A/ | "A"A/<c/B/>A/ "D"F"E7"E/>F/ |
"A"AA "F#m"ae/>d/ | "Bm"cA B "E7"((3e/f/g/) |
"A"a/>b/a/>f/ "E7"e/<c/B/>A/ | "A"A/<c/B/>A/ "D"F"E"E/>F/ |
"F#m"AA "A"ae/>c/ | "Bm"BA "A"Ac/>e/ |
"A"f/>e/c/<e/ a/>e/c/<e/ | "A"f/>e/c/<e/ "D"f"E"e |
"A"a/>e/c/<e/ "F#m"f/>e/c/<e/ | "Bm"((3f/g/a/) e/>c/ B ((3e/f/g/) |
"F#m"a/>b/a/>f/ "E7"e/>c/B/>A/ |1 "A7"A/>c/B/>A/ "D"F"E7"E/>F/ :|
%%leftmargin 10.2cm
[2 "Bm"((3Bcd) "E7"((3efg) "A"a2 |]

